x-pack/solutions/observability/plugins/apm/public/components/shared/span_icon/icons/s3.svg

<svg width="18" height="18" viewBox="0 0 18 18" fill="none" xmlns="http://www.w3.org/2000/svg">
<g clip-path="url(#clip0_1421_84662)">
<path d="M0 0H18V18H0V0Z" fill="url(#paint0_linear_1421_84662)"/>
<path d="M14.7333 9.63277C14.6667 9.2327 14.2334 8.99996 13.9333 8.79943C13.8333 8.7661 13.5667 8.63279 13.6001 8.53224V8.36715L13.8334 6.63324L14.0668 5.13277C14.1334 4.66604 13.9 4.36609 13.5334 4.09946C12.7667 3.56607 11.7667 3.3661 10.8334 3.19946C9.69793 3.02258 8.5458 2.9778 7.40004 3.06601C6.36405 3.12781 5.34774 3.37625 4.40008 3.79937C3.90002 4.03266 3.2329 4.43218 3.30012 5.06612C3.53341 6.99943 3.83337 8.96607 4.06666 10.8994L4.43341 13.5661C4.45374 13.7406 4.51999 13.9065 4.6254 14.0471C4.73082 14.1876 4.87162 14.2977 5.03346 14.3661C5.76668 14.766 6.70001 14.8995 7.53335 14.9661C8.63584 15.0605 9.74604 15.0043 10.8334 14.7993C11.5334 14.666 12.8 14.4661 12.9333 13.5994C13.0668 12.5327 13.2334 11.4661 13.3668 10.3995L13.4001 10.066C13.7334 10.1999 14.8668 10.3667 14.7333 9.63277V9.63277ZM8.63346 3.46665C10.0667 3.46665 11.7334 3.63329 13 4.33332C13.2001 4.46663 13.6667 4.69993 13.5334 5.00002C13.4001 5.30012 12.9667 5.43329 12.7001 5.53327C12.3001 5.66659 11.9334 5.76657 11.5329 5.8667C9.82948 6.19961 8.08115 6.23345 6.36616 5.96668C5.59016 5.88955 4.83401 5.67529 4.1329 5.33387C3.96612 5.23388 3.66616 5.06668 3.73282 4.83381C3.80471 4.7 3.90779 4.58548 4.03333 4.49996C4.56478 4.16518 5.15179 3.92811 5.76668 3.79993C6.70542 3.57414 7.66795 3.46224 8.63346 3.46665V3.46665ZM12.4001 13.5999C12.3668 13.8999 11.9 14.0334 11.7001 14.1C11.2311 14.2462 10.752 14.3576 10.2667 14.4333C9.2042 14.5666 8.12923 14.5666 7.06676 14.4333C6.39238 14.39 5.73412 14.2084 5.13288 13.8999C5.0502 13.8684 4.97816 13.8142 4.92513 13.7434C4.8721 13.6726 4.84027 13.5881 4.83335 13.5C4.60005 11.6 4.33343 9.69999 4.06666 7.76668L3.79947 5.69949C4.34574 5.98839 4.92891 6.20129 5.53282 6.33231C6.19435 6.45623 6.86192 6.54542 7.53279 6.59949C8.8471 6.70017 10.1689 6.63297 11.4662 6.39952C12.1607 6.31466 12.8303 6.08787 13.4334 5.73324L12.9667 9.4667C11.7511 9.0582 10.5602 8.5796 9.40001 8.03331L9.26669 7.96665C9.20004 7.93332 9.23337 7.93332 9.20004 7.86667C9.17384 7.72635 9.10383 7.59795 9.00007 7.49992C8.94349 7.45533 8.87857 7.4225 8.80912 7.40336C8.73968 7.38423 8.6671 7.37917 8.59567 7.38848C8.52424 7.3978 8.45539 7.4213 8.39318 7.45761C8.33096 7.49391 8.27663 7.54229 8.23338 7.5999C8.14605 7.71266 8.10442 7.85419 8.11677 7.99628C8.12912 8.13837 8.19456 8.27059 8.30004 8.36659C8.35226 8.41662 8.41664 8.45215 8.4868 8.46969C8.55697 8.48722 8.63049 8.48615 8.70012 8.46657C8.76677 8.43324 8.86676 8.43324 8.93341 8.39992C9.0334 8.36659 9.0334 8.36659 9.13338 8.43324C10.2981 9.00473 11.5009 9.49481 12.7334 9.89996C12.9333 9.93329 12.9334 9.89996 12.9 10.0666C12.9 10.1999 12.8667 10.2999 12.8667 10.4L12.7334 11.5672L12.4001 13.6005V13.5999ZM8.70012 7.93276C8.70012 7.99941 8.60013 7.96609 8.60013 7.93276C8.60013 7.89943 8.73288 7.80001 8.70012 7.93332V7.93276ZM13.4334 9.60001L13.5001 9.06662C13.7334 9.19993 14.1329 9.3999 14.2668 9.69943C14.0335 9.79998 13.6334 9.66666 13.4334 9.60001V9.60001Z" fill="white"/>
</g>
<defs>
<linearGradient id="paint0_linear_1421_84662" x1="-17.6767" y1="35.6767" x2="17.6767" y2="0.323296" gradientUnits="userSpaceOnUse">
<stop stop-color="#1B660F"/>
<stop offset="1" stop-color="#6CAE3E"/>
</linearGradient>
<clipPath id="clip0_1421_84662">
<rect width="18" height="18" fill="white"/>
</clipPath>
</defs>
</svg>

<svg xmlns="http://www.w3.org/2000/svg" width="18" height="18" fill="none"><g clip-path="url(#a)"><path fill="url(#b)" d="M0 0h18v18H0z"/><path fill="#fff" d="M14.733 9.633c-.066-.4-.5-.633-.8-.834-.1-.033-.366-.166-.333-.267v-.165l.233-1.734.234-1.5c.066-.467-.167-.767-.534-1.034-.766-.533-1.766-.733-2.7-.9A15 15 0 0 0 7.4 3.066a8.6 8.6 0 0 0-3 .733c-.5.234-1.167.633-1.1 1.267.233 1.933.533 3.9.767 5.833l.366 2.667a.99.99 0 0 0 .6.8c.734.4 1.667.534 2.5.6 1.103.095 2.213.038 3.3-.167.7-.133 1.967-.333 2.1-1.2.134-1.066.3-2.133.434-3.2l.033-.333c.333.134 1.467.3 1.333-.433m-6.1-6.166c1.434 0 3.1.166 4.367.866.2.134.667.367.533.667-.133.3-.566.433-.833.533-.4.134-.767.234-1.167.334a15 15 0 0 1-5.167.1 6.6 6.6 0 0 1-2.233-.633c-.167-.1-.467-.267-.4-.5a.95.95 0 0 1 .3-.334 5.3 5.3 0 0 1 1.734-.7 12 12 0 0 1 2.866-.333M12.4 13.6c-.033.3-.5.433-.7.5a10 10 0 0 1-1.433.333 12.9 12.9 0 0 1-3.2 0 4.9 4.9 0 0 1-1.934-.533.47.47 0 0 1-.3-.4c-.233-1.9-.5-3.8-.766-5.733l-.268-2.068c.547.29 1.13.502 1.734.633q.992.186 2 .267c1.314.101 2.636.034 3.933-.2a5.1 5.1 0 0 0 1.967-.666l-.466 3.734A33 33 0 0 1 9.4 8.033l-.133-.066c-.067-.034-.034-.034-.067-.1A.68.68 0 0 0 9 7.5a.54.54 0 0 0-.767.1.567.567 0 0 0 .067.767.42.42 0 0 0 .4.1c.067-.034.167-.034.233-.067.1-.033.1-.033.2.033a28 28 0 0 0 3.6 1.467c.2.033.2 0 .167.167 0 .133-.033.233-.033.333l-.134 1.167zM8.7 7.933c0 .066-.1.033-.1 0 0-.034.133-.133.1 0M13.433 9.6l.067-.533c.233.133.633.333.767.632-.233.101-.634-.032-.834-.099"/></g><defs><linearGradient id="b" x1="-17.677" x2="17.677" y1="35.677" y2=".323" gradientUnits="userSpaceOnUse"><stop stop-color="#1B660F"/><stop offset="1" stop-color="#6CAE3E"/></linearGradient><clipPath id="a"><path fill="#fff" d="M0 0h18v18H0z"/></clipPath></defs></svg>
